X: 2401
T: KNOCKING HORNPIPE
%R: hornpipe, reel
B: James Kerr "Merry Melodies" v.2 p.45 #401
Z: 2016 John Chambers <jc:trillian.mit.edu>
M: C
L: 1/8
K: G
(Bc) |\
dedB c2(Bc) | dedB A2(Bc) |\
dedB cBcA |[1 G2A2 B2 :|[2 G2[g2B2] [g2B2] :|\
(GB) |:\
d2d2 cBce | d2 (3G,G,G, G,2 (Bc) |\
dedB cBcA |[1 G2A2 B2(Bc) :|[2 G2[g2B2] [g2B2] :|
